img/blog.svg

<svg width="128pt" height="128pt" viewBox="0 0 128 128" xmlns="http://www.w3.org/2000/svg"><g fill="#fff"><path d="M30.93 10.02C43.92 1.97 59.89-1 74.92 1.65c14.39 2.4 27.76 10.06 37.27 21.09 10.07 11.55 15.75 26.88 15.4 42.21.11 18.11-8.34 35.92-22.09 47.64-10.53 9.22-24.19 14.42-38.09 15.41h-6.55c-6.13-.61-12.29-1.53-18.09-3.72-17.29-6.01-31.6-19.96-38.1-37.07-5.36-13.79-5.63-29.49-.83-43.48 4.74-13.94 14.5-26.09 27.09-33.71m23.64-4.35C37.91 8.31 22.63 18.44 13.74 32.78 4.71 46.92 2.29 65 7.05 81.06c4.47 15.46 15.56 28.85 29.9 36.12 14.22 7.39 31.47 8.51 46.59 3.27 12.54-4.34 23.52-13.04 30.62-24.25 8.5-13.26 11.44-29.98 7.75-45.31-3.38-14.8-12.73-28.11-25.48-36.34-12.19-8.06-27.45-11.2-41.86-8.88z"/><path d="M85.43 37.14c1.61-1.9 3.18-3.82 4.74-5.76 4.18.25 9.04 2.94 8.87 7.7-1.24 1.95-2.84 3.63-4.18 5.5-4.64.47-8.3-3.24-9.43-7.44zm-56.49.36c14.92-.04 29.83.05 44.75-.11.99 2.16 1.98 4.32 3 6.47-.77.81-1.56 1.61-2.38 2.37-.81-1.86-1.63-3.71-2.45-5.57-12.72-.02-25.45.1-38.17.08 3.99 16.6 8.07 33.18 12.06 49.78 15.01-2.74 30.02-5.51 45.03-8.24-2.76-6.14-5.6-12.26-8.37-18.41.61-.62 1.81-1.88 2.41-2.5 3.81 8.07 7.56 16.17 11.32 24.26-18.16 3.65-36.31 7.32-54.47 10.94-4.25-19.69-8.5-39.38-12.73-59.07z"/><path d="M83.67 39.16c1.86 3.65 4.88 6.78 9.05 7.56-7.37 8.89-14.58 17.91-21.92 26.82-1.62.14-3.24.34-4.88.33-1.44-.77-2.5-2.1-3.73-3.16-.1-1.61-.23-3.21-.36-4.81 7.2-8.97 14.7-17.71 21.84-26.74zm-44.2 5.47c10.36-.18 20.71-.55 31.07-.86.01.6.01 1.81.02 2.41-10.42.13-20.82.72-31.23.73.03-.57.1-1.71.14-2.28zm3.18 11c8.52-.41 17.02-1.03 25.54-1.43-.56.58-1.66 1.74-2.21 2.32-7.72.77-15.5.91-23.25 1.5l-.08-2.39zm3.3 12.55c4.47-.5 8.96-.93 13.43-1.44l.2 2.35c-4.54.43-9.06.99-13.6 1.37-.01-.57-.02-1.71-.03-2.28zM58.27 80.8c.04-2.14.4-4.26.71-6.37 1.12 1.44 2.51 2.61 4.06 3.56-1.92.76-4.47.95-4.67 3.53l.94-.99c8.28-1.58 16.64-2.75 24.95-4.15l.43 2.23c-11.59 2.03-23.22 3.81-34.82 5.72-.1-.58-.28-1.74-.38-2.32 2.92-.45 5.82-1.04 8.78-1.21z"/></g></svg>

<?xml version="1.0" encoding="UTF-8" ?>
<!DOCTYPE svg PUBLIC "-//W3C//DTD SVG 1.1//EN" "http://www.w3.org/Graphics/SVG/1.1/DTD/svg11.dtd">
<svg width="128pt" height="128pt" viewBox="0 0 128 128" version="1.1" xmlns="http://www.w3.org/2000/svg">
<g id="#ffffffff">
<path fill="#ffffff" opacity="1.00" d=" M 30.93 10.02 C 43.92 1.97 59.89 -1.00 74.92 1.65 C 89.31 4.05 102.68 11.71 112.19 22.74 C 122.26 34.29 127.94 49.62 127.59 64.95 C 127.70 83.06 119.25 100.87 105.50 112.59 C 94.97 121.81 81.31 127.01 67.41 128.00 L 60.86 128.00 C 54.73 127.39 48.57 126.47 42.77 124.28 C 25.48 118.27 11.17 104.32 4.67 87.21 C -0.69 73.42 -0.96 57.72 3.84 43.73 C 8.58 29.79 18.34 17.64 30.93 10.02 M 54.57 5.67 C 37.91 8.31 22.63 18.44 13.74 32.78 C 4.71 46.92 2.29 65.00 7.05 81.06 C 11.52 96.52 22.61 109.91 36.95 117.18 C 51.17 124.57 68.42 125.69 83.54 120.45 C 96.08 116.11 107.06 107.41 114.16 96.20 C 122.66 82.94 125.60 66.22 121.91 50.89 C 118.53 36.09 109.18 22.78 96.43 14.55 C 84.24 6.49 68.98 3.35 54.57 5.67 Z" />
<path fill="#ffffff" opacity="1.00" d=" M 85.43 37.14 C 87.04 35.24 88.61 33.32 90.17 31.38 C 94.35 31.63 99.21 34.32 99.04 39.08 C 97.80 41.03 96.20 42.71 94.86 44.58 C 90.22 45.05 86.56 41.34 85.43 37.14 Z" />
<path fill="#ffffff" opacity="1.00" d=" M 28.94 37.50 C 43.86 37.46 58.77 37.55 73.69 37.39 C 74.68 39.55 75.67 41.71 76.69 43.86 C 75.92 44.67 75.13 45.47 74.31 46.23 C 73.50 44.37 72.68 42.52 71.86 40.66 C 59.14 40.64 46.41 40.76 33.69 40.74 C 37.68 57.34 41.76 73.92 45.75 90.52 C 60.76 87.78 75.77 85.01 90.78 82.28 C 88.02 76.14 85.18 70.02 82.41 63.87 C 83.02 63.25 84.22 61.99 84.82 61.37 C 88.63 69.44 92.38 77.54 96.14 85.63 C 77.98 89.28 59.83 92.95 41.67 96.57 C 37.42 76.88 33.17 57.19 28.94 37.50 Z" />
<path fill="#ffffff" opacity="1.00" d=" M 83.67 39.16 C 85.53 42.81 88.55 45.94 92.72 46.72 C 85.35 55.61 78.14 64.63 70.80 73.54 C 69.18 73.68 67.56 73.88 65.92 73.87 C 64.48 73.10 63.42 71.77 62.19 70.71 C 62.09 69.10 61.96 67.50 61.83 65.90 C 69.03 56.93 76.53 48.19 83.67 39.16 Z" />
<path fill="#ffffff" opacity="1.00" d=" M 39.47 44.63 C 49.83 44.45 60.18 44.08 70.54 43.77 C 70.55 44.37 70.55 45.58 70.56 46.18 C 60.14 46.31 49.74 46.90 39.33 46.91 C 39.36 46.34 39.43 45.20 39.47 44.63 Z" />
<path fill="#ffffff" opacity="1.00" d=" M 42.65 55.63 C 51.17 55.22 59.67 54.60 68.19 54.20 C 67.63 54.78 66.53 55.94 65.98 56.52 C 58.26 57.29 50.48 57.43 42.73 58.02 C 42.71 57.42 42.67 56.23 42.65 55.63 Z" />
<path fill="#ffffff" opacity="1.00" d=" M 45.95 68.18 C 50.42 67.68 54.91 67.25 59.38 66.74 C 59.43 67.33 59.53 68.50 59.58 69.09 C 55.04 69.52 50.52 70.08 45.98 70.46 C 45.97 69.89 45.96 68.75 45.95 68.18 Z" />
<path fill="#ffffff" opacity="1.00" d=" M 58.27 80.80 C 58.31 78.66 58.67 76.54 58.98 74.43 C 60.10 75.87 61.49 77.04 63.04 77.99 C 61.12 78.75 58.57 78.94 58.37 81.52 L 59.31 80.53 C 67.59 78.95 75.95 77.78 84.26 76.38 L 84.69 78.61 C 73.10 80.64 61.47 82.42 49.87 84.33 C 49.77 83.75 49.59 82.59 49.49 82.01 C 52.41 81.56 55.31 80.97 58.27 80.80 Z" />
</g>
</svg>
